source/img/icon-like.svg

<svg version="1.0" id="Layer_1" xmlns="http://www.w3.org/2000/svg" xmlns:xlink="http://www.w3.org/1999/xlink" x="0px" y="0px" width="22px" height="20px" viewBox="0 0 22 20" enable-background="new 0 0 22 20" xml:space="preserve">
  <g id="Page-1">
    <g id="Core" transform="translate(-295.000000, -464.000000)">
      <g id="thumb-up" transform="translate(295.000000, 464.000000)">
        <path id="Shape" fill="#000000" d="M12.383,3.646l-0.637,2.929L11.219,9H13.7h6.2v2c0,0.018,0,0.037,0.001,0.058L17,18H8V8.029 l0.014-0.015L12.383,3.646 M2,10v8V10 M13.2,0L6.6,6.6C6.2,6.9,6,7.4,6,8v10c0,1.1,0.9,2,2,2h9c0.8,0,1.5-0.5,1.8-1.2l3-7.1 C21.9,11.5,21.9,11.2,21.9,11V9H22c0-1.1-0.9-2-2-2h-6.3l1-4.6V2.1c0-0.4-0.2-0.8-0.4-1.1L13.2,0L13.2,0z M4,8H0v12h4V8L4,8z M22,9c0,0.033,0,0.044,0,0.044V9L22,9z"/>
      </g>
    </g>
  </g>
</svg>

<svg version="1.0" xmlns="http://www.w3.org/2000/svg" width="22" height="20">
  <path d="M12.38 3.65l-.63 2.92L11.22 9h8.68v2.06L17 18H8V8.03L8.01 8l4.37-4.36M2 10v8-8M13.2 0L6.6 6.6c-.4.3-.6.8-.6 1.4v10c0 1.1.9 2 2 2h9c.8 0 1.5-.5 1.8-1.2l3-7.1c.1-.2.1-.5.1-.7V9h.1a2 2 0 00-2-2h-6.3l1-4.6v-.3c0-.4-.2-.8-.4-1.1l-1.1-1zM4 8H0v12h4V8zm18 1v.04V9z"/>
</svg>
